icons/mobile/24/svg/soccer-ball-24.svg

<svg width="24" height="24" viewBox="0 0 24 24" fill="none" xmlns="http://www.w3.org/2000/svg">
<path d="M14.6289 11.4102L13.625 14.5H10.375L9.37109 11.4102L12 9.5L14.6289 11.4102Z" fill="black"/>
<path fill-rule="evenodd" clip-rule="evenodd" d="M12 2.125C17.4538 2.125 21.875 6.54619 21.875 12C21.875 17.4538 17.4538 21.875 12 21.875C6.54619 21.875 2.125 17.4538 2.125 12C2.125 6.54619 6.54619 2.125 12 2.125ZM12 6.875L8.55078 4.36816C7.56853 4.8128 6.68826 5.44128 5.95215 6.20996L7.5 10.2412L3.72559 13.2969C3.86931 14.2214 4.16489 15.0952 4.58496 15.8936L8.44043 15.6924L10.1592 20.1689C10.7517 20.3019 11.3673 20.375 12 20.375C12.6717 20.375 13.3242 20.2929 13.9502 20.1436L15.0742 15.9473L19.5049 15.7148C19.9023 14.9136 20.1748 14.0405 20.2979 13.1191L16.5 10.6543L17.7607 5.94629L17.7822 5.94434C17.103 5.29555 16.3152 4.7605 15.4482 4.36816L12 6.875Z" fill="black"/>
</svg>

<!-- This Source Code Form is subject to the terms of the Mozilla Public
   - License, v. 2.0. If a copy of the MPL was not distributed with this
   - file, You can obtain one at http://mozilla.org/MPL/2.0/. -->
<svg xmlns="http://www.w3.org/2000/svg" width="24" height="24" fill="none" viewBox="0 0 24 24">
    <path fill="#000" d="m14.629 11.41-1.004 3.09h-3.25l-1.004-3.09L12 9.5z" />
    <path fill="#000" fill-rule="evenodd" d="M12 2.125c5.454 0 9.875 4.421 9.875 9.875S17.454 21.875 12 21.875 2.125 17.454 2.125 12 6.546 2.125 12 2.125m0 4.75L8.55 4.368A8.4 8.4 0 0 0 5.953 6.21L7.5 10.241l-3.774 3.056c.143.924.439 1.798.859 2.597l3.855-.202 1.72 4.477a8.4 8.4 0 0 0 1.84.206c.672 0 1.324-.082 1.95-.231l1.124-4.197 4.43-.232a8.3 8.3 0 0 0 .794-2.596L16.5 10.654l1.26-4.708.022-.002a8.4 8.4 0 0 0-2.334-1.576z" clip-rule="evenodd" />
</svg>
